X:1
M:C
L:1/8
Q:1/4=100
K:E_
(3E/D/C/|B,>A,G,>A, B,AGe|G>FE>F GCC (3E/D/C/|B,>A,G,>A, B,AGe|
[A3/2c3/2][G/B/][GB][B,D] [G,3E3] (3E/D/C/|B,>A,G,>A, B,AGe|
(3B/c/d/|~e>fg>e B>AGe|G>FE>F GCC (3B/c/d/|~e>fg>e b>geB|
([G3/2e3/2][A/c/])([A3/2c3/2][G/B/]) [G2B2] (B/c/4d/4 e/4f/4g/4)a/4|
(b/a/)(a/g/) (g/f/)(f/e/) (e/d/)(d/c/) (c/B/)(B/A/)|G>FE>F G>CC>D|
EcDB CAB,G|A,FB,D [G,3E3]||

